frontend/web/img/pause.svg

<svg xmlns="http://www.w3.org/2000/svg" width="19" height="25"><path d="M2 0h3a2.006 2.006 0 0 1 2 2v21a2.006 2.006 0 0 1-2 2H2a2.006 2.006 0 0 1-2-2V2a2.006 2.006 0 0 1 2-2zm12 0h3a2.006 2.006 0 0 1 2 2v21a2.006 2.006 0 0 1-2 2h-3a2.006 2.006 0 0 1-2-2V2a2.006 2.006 0 0 1 2-2z" fill="#fff" fill-rule="evenodd"/></svg>

<svg id="Слой_1" width="32" height="41" data-name="Слой 1" xmlns="http://www.w3.org/2000/svg" viewBox="0 0 19 25"><defs><style>.cls-1{fill:#fff;}</style></defs><title>pause</title><path class="cls-1" d="M2,0H5A2.006,2.006,0,0,1,7,2V23a2.006,2.006,0,0,1-2,2H2a2.006,2.006,0,0,1-2-2V2A2.006,2.006,0,0,1,2,0ZM14,0h3a2.006,2.006,0,0,1,2,2V23a2.006,2.006,0,0,1-2,2H14a2.006,2.006,0,0,1-2-2V2A2.006,2.006,0,0,1,14,0Z"/></svg>
